X: 1
T: Munster Buttermilk
R: jig
S: Fiddle Hell Online 2021-04-15 Rodney Miller jam
Z: 2021 John Chambers <jc:trillian.mit.edu>
M: 6/8
L: 1/8
K: G
|: "G"gfg "C"age | "G"d2B {c}BAB |1,3 d2B {c}BAB | dBG G2d :|2,4 dBG GAB | "D"A3 "G"G3 :|
|: "G"d2e g2a | b2b bag |[1,2 "Am"a2a {b}age | "C"gfg age :|[2,4" Am"age "G"dgb | "D"a3 "G"g3 :|
